img/svgicons/tree.svg

<svg width="16" height="19" viewBox="0 0 16 19" fill="none" xmlns="http://www.w3.org/2000/svg">
<path d="M14.926 5.81376C14.5392 5.5155 14.2607 5.04769 14.3095 4.58894C14.4817 2.9697 13.55 1.58672 12.0439 1.33439C11.7765 1.28951 11.5102 1.16723 11.2691 1.02969C10.8147 0.770297 10.3412 0.674772 9.85155 0.820226C9.58713 0.898845 9.42443 0.863754 9.21428 0.661116C8.01548 -0.495 6.13669 -0.081813 5.54936 1.48733C5.38075 1.938 5.1314 2.20104 4.74047 2.37249C4.65319 2.4108 4.5574 2.45403 4.4954 2.52477C4.30026 2.74737 4.1143 2.69245 3.87789 2.58534C2.35173 1.89293 0.708183 3.03227 0.644574 4.79417C0.635544 5.04582 0.537573 5.31903 0.410847 5.53601C-0.0428307 6.31351 -0.123051 7.0935 0.181497 7.90165C-0.0378073 8.48518 0.153452 9.21271 0.693637 9.63476C1.28637 10.098 1.96989 9.85627 2.49371 9.40786C2.64198 9.39286 2.79286 9.36086 2.9469 9.31063C3.25483 9.21005 3.53285 9.08991 3.79249 9.22384C3.8336 9.25637 3.87585 9.28529 3.91872 9.31198C3.93019 9.32215 3.94162 9.33167 3.95306 9.34303C3.95457 9.3405 3.95583 9.33847 3.95734 9.33594C4.04283 9.38508 4.13149 9.42231 4.22229 9.4507C4.72601 11.3469 5.80885 13.0078 7.29584 14.1849C7.2052 15.3448 6.91535 16.4819 6.37529 17.5962C5.77248 17.9887 5.03706 17.7048 4.40584 17.5187C3.84781 17.354 3.30448 17.2934 2.74735 17.4828C2.63205 17.522 2.57837 17.6191 2.5727 17.7197C2.57196 17.7225 2.57082 17.7248 2.57017 17.7277C2.52792 17.9211 2.48567 18.1145 2.44341 18.3078C2.40394 18.4887 2.52629 18.6126 2.65893 18.637C2.67967 18.6426 2.70167 18.6465 2.72608 18.6465H13.0367C13.1271 18.6465 13.1914 18.6042 13.2313 18.5442C13.2907 18.4947 13.3301 18.419 13.3301 18.3339V17.9321C13.3301 17.8132 13.2536 17.7114 13.1512 17.6774C13.1121 17.6423 13.0605 17.6196 12.9947 17.6196H9.87925C9.72448 17.4292 9.56691 17.2368 9.40422 17.0466C8.95156 16.5171 8.75188 15.9278 8.95535 15.2149C9.02601 14.9672 9.07693 14.7097 9.10633 14.4527C9.1932 13.6911 9.27444 12.926 9.35682 12.1497C10.4025 12.0436 11.348 11.5687 12.0821 10.763C12.3866 10.7622 12.66 10.666 12.8879 10.5027L12.9794 10.4725C13.4762 10.8995 14.2425 10.9435 14.8214 10.7158C15.3578 10.5049 15.8217 9.93338 15.8379 9.30512C15.8394 9.24629 15.8366 9.18806 15.8319 9.13032C16.2495 7.9848 15.8676 6.53998 14.926 5.81376ZM5.83168 9.26467C5.8376 9.26228 5.8425 9.26037 5.84839 9.25798C5.95641 9.21419 6.14465 9.26441 6.24185 9.34487C6.3789 9.45845 6.50852 9.58221 6.63528 9.70809C6.6378 9.7188 6.63793 9.72871 6.64107 9.73971C6.83458 10.4285 7.02812 11.1175 7.2216 11.8063C7.26776 12.1534 7.29716 12.4983 7.31313 12.8414C6.3119 11.9645 5.76416 10.6624 5.83168 9.26467ZM9.58793 11.2556C9.6332 11.1401 9.67856 11.0247 9.72575 10.9098C9.74146 10.9098 9.7573 10.9098 9.77302 10.9096C9.77302 10.8699 9.77388 10.8299 9.77515 10.7899C9.90428 10.4815 10.0454 10.1799 10.2038 9.89166C10.4056 10.0812 10.6158 10.2514 10.8398 10.3903C10.4648 10.7433 10.0445 11.0331 9.58793 11.2556Z" fill="#337D5A"/>
</svg>

<svg width="16" height="19" fill="none" xmlns="http://www.w3.org/2000/svg"><path d="M14.926 5.814c-.387-.298-.665-.766-.617-1.225.173-1.62-.759-3.002-2.265-3.255-.268-.044-.534-.167-.775-.304-.454-.26-.928-.355-1.417-.21-.265.079-.428.044-.638-.159-1.199-1.156-3.077-.743-3.665.826-.168.451-.418.714-.809.885a.686.686 0 0 0-.245.153c-.195.222-.38.167-.617.06-1.526-.692-3.17.447-3.233 2.21a1.667 1.667 0 0 1-.234.741c-.454.778-.534 1.558-.23 2.366-.219.583-.028 1.31.513 1.733.592.463 1.276.221 1.8-.227.148-.015.299-.047.453-.097.308-.1.586-.221.845-.087.042.032.084.061.127.088l.034.031.004-.007c.086.05.174.086.265.115.504 1.896 1.587 3.557 3.074 4.734a9.417 9.417 0 0 1-.92 3.411c-.604.393-1.339.109-1.97-.077-.558-.165-1.102-.226-1.659-.036a.255.255 0 0 0-.174.237l-.003.008-.127.58c-.04.18.083.305.216.329.02.006.043.01.067.01h10.31c.091 0 .155-.043.195-.103a.274.274 0 0 0 .1-.21v-.402a.268.268 0 0 0-.18-.255.227.227 0 0 0-.156-.057H9.879c-.155-.19-.312-.383-.475-.573-.452-.53-.652-1.12-.449-1.832.071-.248.122-.505.151-.762.087-.762.168-1.527.25-2.303a4.218 4.218 0 0 0 2.726-1.387c.305 0 .578-.097.806-.26l.091-.03c.497.426 1.264.47 1.842.243.537-.211 1-.783 1.017-1.41a1.637 1.637 0 0 0-.006-.176c.418-1.145.036-2.59-.906-3.316Zm-9.094 3.45.016-.006c.108-.044.297.006.394.087.137.113.267.237.393.363.003.01.003.02.006.032l.58 2.066c.047.347.076.692.092 1.035-1.001-.877-1.549-2.179-1.481-3.576Zm3.756 1.992c.045-.116.09-.231.138-.346h.047c0-.04 0-.08.002-.12.13-.308.27-.61.429-.898.202.19.412.36.636.498a5.05 5.05 0 0 1-1.252.866Z" fill="#337D5A"/></svg>
